icons/fire.svg

<svg width="14" height="14" viewBox="0 0 14 14" fill="none" xmlns="http://www.w3.org/2000/svg">
<path d="M9.70787 5L10.5066 6.19803C11.2494 7.31232 11.3383 8.73923 10.7393 9.93706C10.1072 11.2014 8.81497 12 7.40144 12H6.70787C4.9635 12 3.46162 10.7688 3.11952 9.05826L3.07629 8.84209C2.84331 7.6772 3.14999 6.46946 3.9105 5.55684L4.71962 4.5859C5.04403 4.19661 5.32233 3.77109 5.54895 3.31784L6.20787 2L7.49039 3.71002C7.63291 3.90005 7.72337 4.12398 7.75283 4.35967L7.99488 6.29605C8.0683 6.88344 8.83205 7.06374 9.16041 6.5712C9.19191 6.52394 9.21697 6.4727 9.23493 6.41882L9.70787 5Z" stroke="red" stroke-linecap="round" stroke-linejoin="round"/>
</svg>

<svg xmlns="http://www.w3.org/2000/svg" width="14" height="14" fill="none" viewBox="0 0 14 14"><path stroke="red" stroke-linecap="round" stroke-linejoin="round" d="m9.708 5 .799 1.198A3.732 3.732 0 0 1 7.4 12h-.693A3.66 3.66 0 0 1 3.12 9.058l-.044-.216a3.93 3.93 0 0 1 .834-3.285l.81-.971q.487-.587.829-1.268L6.208 2 7.49 3.71c.143.19.233.414.263.65l.242 1.936a.639.639 0 0 0 1.24.123z"/></svg>
